X: 27
T: Pollonesse #27
M: 3/4
L: 1/16
K: F
Q:120
c2e2 f4 a2f2|d2e2 f4 g2e2|c2e2f4a2f2|c2B2 c8:|
|:F2A2 B4 d2B2|G2A2B4c2A2|F2A2 c2b2 a2g2|agfg f8:|
|:c2c2 f2f2 d2d2|c2B2 cBAB A4|c2c2 f2f2 d2d2|c2B2 cBAB A4|
c2e2 f2g2 a2f2|g2a2b4b2g2|e2e2 f2g2 a2a2|gagf/g/ f8:|

